src/images/Photoshop.svg

<svg width="97" height="97" viewBox="0 0 97 97" fill="none" xmlns="http://www.w3.org/2000/svg">
<path fill-rule="evenodd" clip-rule="evenodd" d="M79.8237 1.32617H17.1763C7.69009 1.32617 0 8.99771 0 18.461V78.539C0 88.0023 7.69009 95.6738 17.1763 95.6738H79.8237C89.3099 95.6738 97 88.0023 97 78.539V18.461C97 8.99771 89.3099 1.32617 79.8237 1.32617ZM21.8428 67.4888V26.0074C21.8428 25.7068 21.9717 25.5536 22.2332 25.5536C22.9251 25.5536 23.56 25.5536 24.5077 25.5215C25.1988 25.498 25.9373 25.4856 26.7158 25.4726L26.7172 25.4726C27.0058 25.4677 27.2999 25.4628 27.5992 25.4572L31.1133 25.391C32.3491 25.3696 33.5742 25.3589 34.7885 25.3589C38.0853 25.3589 40.8652 25.7698 43.1283 26.5917C45.1629 27.2797 47.0184 28.4106 48.5606 29.9026C49.8683 31.1965 50.8785 32.7584 51.5213 34.4803C52.1293 36.157 52.4367 37.9274 52.4292 39.7104C52.4292 43.1744 51.6268 46.0309 50.022 48.2797C48.4059 50.5382 46.135 52.2487 43.515 53.1808C40.7818 54.1981 37.7435 54.5422 34.4037 54.5422C33.456 54.5422 32.7775 54.5327 32.387 54.5101C31.9965 54.4874 31.4109 54.4779 30.6299 54.4779V67.4283C30.6398 67.4955 30.6363 67.564 30.6195 67.6299C30.6027 67.6957 30.573 67.7576 30.5321 67.8119C30.4913 67.8662 30.44 67.9119 30.3813 67.9464C30.3226 67.9808 30.2577 68.0033 30.1902 68.0126C30.1418 68.0202 30.0926 68.0202 30.0443 68.0126H22.2977C21.9868 68.0069 21.8428 67.8349 21.8428 67.4888ZM30.6299 33.3439V46.8729C31.1935 46.917 31.7141 46.9385 32.1918 46.9372H34.3393C35.9195 46.9318 37.4892 46.6818 38.9925 46.196C40.2812 45.8157 41.4332 45.0741 42.3114 44.0593C43.1568 43.0648 43.5794 41.6781 43.5794 39.8995C43.6123 38.6436 43.2833 37.4046 42.6317 36.3296C41.9488 35.2897 40.9614 34.4849 39.8038 34.0246C38.2948 33.44 36.6833 33.1641 35.0652 33.2134C34.0227 33.2134 33.1009 33.2242 32.2998 33.2456C31.4987 33.267 30.9452 33.2998 30.6394 33.3439H30.6299ZM73.7167 43.0496C75.0635 43.3268 76.3662 43.7854 77.5891 44.4129C77.6762 44.457 77.7724 44.4802 77.8701 44.4809C77.9678 44.4816 78.0643 44.4596 78.152 44.4167C78.2149 44.374 78.2655 44.3155 78.2988 44.2472C78.3321 44.1788 78.3468 44.103 78.3415 44.0272V37.4697C78.3429 37.3055 78.3212 37.142 78.2771 36.9838C78.2442 36.8981 78.1918 36.8212 78.1241 36.7592C78.0563 36.6972 77.975 36.6517 77.8866 36.6264C76.7731 36.1531 75.5996 35.835 74.3991 35.681C72.7406 35.4303 71.0649 35.3115 69.3876 35.3255C66.5242 35.3255 64.1385 35.8014 62.2305 36.7531C60.492 37.5537 59.0228 38.8388 57.9999 40.4535C57.0996 41.9232 56.6258 43.6133 56.6314 45.3357C56.6128 46.7655 56.9378 48.1789 57.5791 49.4577C58.3191 50.8145 59.3667 51.98 60.6383 52.8612C62.4163 54.0906 64.3534 55.0734 66.3966 55.7826C68.3944 56.5112 69.7186 57.1352 70.3694 57.6545C71.0202 58.1739 71.3455 58.7153 71.3455 59.2788C71.3492 59.6333 71.2499 59.9812 71.0595 60.2806C70.8691 60.5799 70.5958 60.8178 70.2727 60.9654C69.555 61.3549 68.438 61.5497 66.9216 61.5497C65.319 61.5294 63.7243 61.3225 62.1698 60.9333C60.4049 60.538 58.7127 59.87 57.1545 58.9536C57.1053 58.9123 57.0445 58.8871 56.9805 58.8814C56.9164 58.8756 56.8521 58.8896 56.7963 58.9214C56.7389 58.9604 56.6934 59.0143 56.6647 59.0773C56.6359 59.1404 56.6251 59.21 56.6333 59.2788V66.2882C56.6272 66.4479 56.6669 66.6061 56.7478 66.7441C56.8287 66.8821 56.9475 66.9942 57.0901 67.0672C58.4082 67.669 59.7962 68.1054 61.2221 68.3662C63.0313 68.729 64.8735 68.9033 66.7188 68.8862C69.6251 68.8862 72.0677 68.4526 74.0465 67.5853C75.8687 66.8415 77.4384 65.5912 78.569 63.9832C79.6243 62.398 80.1692 60.529 80.1308 58.6264C80.1569 57.1838 79.8316 55.7563 79.1831 54.4666C78.4135 53.1067 77.3182 51.9581 75.995 51.1236C74.0509 49.8916 71.9639 48.8998 69.7799 48.1701C68.8007 47.7851 67.8451 47.3432 66.9178 46.8465C66.3956 46.5837 65.9311 46.2199 65.5512 45.7762C65.3096 45.4828 65.1723 45.1177 65.1608 44.7382C65.1604 44.3467 65.2729 43.9633 65.4849 43.6339C65.7986 43.222 66.2486 42.9346 66.7548 42.8227C67.5492 42.6065 68.3711 42.5077 69.1942 42.5296C70.7164 42.5351 72.2332 42.7095 73.7167 43.0496Z" fill="url(#paint0_linear_24_1133)"/>
<defs>
<linearGradient id="paint0_linear_24_1133" x1="3.94429" y1="90.5619" x2="95.1477" y2="-8.47363" gradientUnits="userSpaceOnUse">
<stop offset="0.00833321" stop-color="#5C03BC"/>
<stop offset="0.53125" stop-color="#E536AB"/>
<stop offset="0.898958" stop-color="#F4E5F0"/>
</linearGradient>
</defs>
</svg>

<svg xmlns="http://www.w3.org/2000/svg" width="97" height="97" fill="none"><path fill="url(#a)" fill-rule="evenodd" d="M79.824 1.326H17.176C7.69 1.326 0 8.998 0 18.461v60.078c0 9.463 7.69 17.135 17.176 17.135h62.648C89.31 95.674 97 88.002 97 78.539V18.461c0-9.463-7.69-17.135-17.176-17.135ZM21.843 67.49V26.007c0-.3.129-.453.39-.453.692 0 1.327 0 2.275-.032.69-.024 1.43-.036 2.208-.05h.001l.882-.015 3.514-.066c1.236-.021 2.461-.032 3.675-.032 3.297 0 6.077.41 8.34 1.233a14.486 14.486 0 0 1 5.433 3.31 12.677 12.677 0 0 1 2.96 4.578c.608 1.677.916 3.447.908 5.23 0 3.464-.802 6.32-2.407 8.57a13.61 13.61 0 0 1-6.507 4.9c-2.733 1.018-5.772 1.362-9.111 1.362-.948 0-1.627-.01-2.017-.032-.39-.023-.976-.032-1.757-.032v12.95a.513.513 0 0 1-.586.585h-7.746c-.311-.006-.455-.178-.455-.524Zm8.787-34.145v13.529c.564.044 1.084.066 1.562.064h2.147c1.58-.005 3.15-.255 4.654-.741a7.014 7.014 0 0 0 3.318-2.137c.846-.994 1.268-2.38 1.268-4.16a6.556 6.556 0 0 0-.947-3.57 6.063 6.063 0 0 0-2.828-2.304 12.098 12.098 0 0 0-4.739-.812c-1.042 0-1.964.011-2.765.033-.801.021-1.355.054-1.66.098h-.01Zm43.087 9.706a15.19 15.19 0 0 1 3.872 1.363.632.632 0 0 0 .563.004.436.436 0 0 0 .19-.39V37.47a1.754 1.754 0 0 0-.065-.486.593.593 0 0 0-.39-.358 13.213 13.213 0 0 0-3.488-.945 31.756 31.756 0 0 0-5.011-.355c-2.864 0-5.25.475-7.158 1.427a9.918 9.918 0 0 0-4.23 3.7 9.288 9.288 0 0 0-1.369 4.883 8.935 8.935 0 0 0 .948 4.122 9.92 9.92 0 0 0 3.06 3.403 23.91 23.91 0 0 0 5.758 2.922c1.997.728 3.322 1.352 3.972 1.871.651.52.977 1.061.977 1.625a1.831 1.831 0 0 1-1.073 1.686c-.718.39-1.835.585-3.351.585a20.642 20.642 0 0 1-4.752-.617 17.392 17.392 0 0 1-5.016-1.98.314.314 0 0 0-.358-.032.378.378 0 0 0-.163.358v7.01a.838.838 0 0 0 .457.778 17.553 17.553 0 0 0 4.132 1.3 26.7 26.7 0 0 0 5.497.52c2.906 0 5.349-.434 7.328-1.302a10.274 10.274 0 0 0 4.522-3.602 9.327 9.327 0 0 0 1.562-5.357 8.901 8.901 0 0 0-.948-4.16 9.463 9.463 0 0 0-3.188-3.342 28.459 28.459 0 0 0-6.215-2.954 26.933 26.933 0 0 1-2.862-1.324 4.407 4.407 0 0 1-1.367-1.07 1.715 1.715 0 0 1-.39-1.038c0-.391.112-.775.324-1.104a2.19 2.19 0 0 1 1.27-.811 8.435 8.435 0 0 1 2.44-.293c1.521.005 3.038.18 4.522.52Z" clip-rule="evenodd"/><defs><linearGradient id="a" x1="3.944" x2="95.148" y1="90.562" y2="-8.474" gradientUnits="userSpaceOnUse"><stop offset=".008" stop-color="#5C03BC"/><stop offset=".531" stop-color="#E536AB"/><stop offset=".899" stop-color="#F4E5F0"/></linearGradient></defs></svg>
